public/assets/img/whatsapp.svg

<svg width="26" height="26" viewBox="0 0 26 26" fill="none" xmlns="http://www.w3.org/2000/svg">
<path d="M13 26C20.1797 26 26 20.1797 26 13C26 5.8203 20.1797 0 13 0C5.8203 0 0 5.8203 0 13C0 20.1797 5.8203 26 13 26Z" fill="#25D366"/>
<path fill-rule="evenodd" clip-rule="evenodd" d="M13.4285 20.2327H13.4253C12.1316 20.2322 10.8603 19.9076 9.73126 19.2918L5.63336 20.3667L6.73003 16.361C6.05355 15.1887 5.69759 13.8589 5.69817 12.4964C5.69987 8.23431 9.16764 4.76672 13.4285 4.76672C15.4964 4.76762 17.4373 5.57265 18.8967 7.03382C20.3562 8.49492 21.1595 10.4371 21.1587 12.5025C21.157 16.7637 17.6906 20.2309 13.4285 20.2327ZM9.92112 17.8923L10.1557 18.0316C11.1422 18.617 12.273 18.9267 13.4259 18.9272H13.4285C16.9698 18.9272 19.8521 16.0448 19.8535 12.5021C19.8542 10.7853 19.1865 9.17106 17.9734 7.95659C16.7604 6.74212 15.1472 6.07297 13.4311 6.07238C9.88703 6.07238 7.00474 8.95441 7.00333 12.4969C7.00284 13.7109 7.34252 14.8932 7.98568 15.9162L8.13844 16.1593L7.48937 18.5302L9.92112 17.8923ZM17.0584 14.1668C17.1931 14.2319 17.2841 14.2759 17.3229 14.3408C17.3712 14.4213 17.3712 14.808 17.2103 15.2593C17.0493 15.7104 16.2777 16.1222 15.9066 16.1776C15.5738 16.2274 15.1527 16.2482 14.69 16.1011C14.4095 16.0121 14.0497 15.8933 13.5889 15.6942C11.7781 14.9124 10.5544 13.1573 10.3231 12.8257C10.3069 12.8024 10.2956 12.7862 10.2893 12.7777L10.2877 12.7756C10.1855 12.6393 9.5006 11.7254 9.5006 10.7796C9.5006 9.88994 9.93764 9.4236 10.1388 9.20894C10.1526 9.19423 10.1653 9.18071 10.1766 9.16831C10.3537 8.97494 10.5629 8.92659 10.6917 8.92659C10.8204 8.92659 10.9493 8.92778 11.0619 8.93343C11.0758 8.93413 11.0902 8.93405 11.1051 8.93396C11.2177 8.9333 11.358 8.93248 11.4965 9.265C11.5497 9.39297 11.6276 9.58268 11.7098 9.78278C11.876 10.1874 12.0597 10.6345 12.092 10.6992C12.1403 10.7959 12.1725 10.9086 12.1081 11.0376C12.0984 11.0569 12.0895 11.0752 12.0809 11.0926C12.0326 11.1913 11.997 11.2639 11.9149 11.3598C11.8827 11.3974 11.8493 11.4381 11.816 11.4787C11.7495 11.5596 11.6831 11.6405 11.6252 11.6982C11.5285 11.7945 11.4278 11.899 11.5405 12.0924C11.6532 12.2857 12.0408 12.9182 12.615 13.4304C13.2323 13.981 13.7687 14.2137 14.0407 14.3316C14.0938 14.3546 14.1368 14.3733 14.1683 14.3891C14.3614 14.4858 14.4741 14.4696 14.5868 14.3408C14.6994 14.2118 15.0696 13.7767 15.1984 13.5834C15.3271 13.3901 15.4559 13.4223 15.6329 13.4867C15.81 13.5512 16.7596 14.0185 16.9528 14.1151C16.9905 14.134 17.0257 14.151 17.0584 14.1668Z" fill="#FDFDFD"/>
</svg>

<svg width="26" height="26" fill="none" xmlns="http://www.w3.org/2000/svg"><path d="M13 26c7.18 0 13-5.82 13-13S20.18 0 13 0 0 5.82 0 13s5.82 13 13 13Z" fill="#25D366"/><path fill-rule="evenodd" clip-rule="evenodd" d="M13.428 20.233h-.003a7.725 7.725 0 0 1-3.694-.941l-4.098 1.075L6.73 16.36a7.716 7.716 0 0 1-1.032-3.865c.002-4.262 3.47-7.73 7.73-7.73a7.68 7.68 0 0 1 5.469 2.268 7.683 7.683 0 0 1 2.262 5.468c-.002 4.262-3.468 7.729-7.73 7.73Zm-3.507-2.34.235.139a6.416 6.416 0 0 0 3.27.895h.002c3.542 0 6.424-2.882 6.425-6.425a6.386 6.386 0 0 0-1.88-4.545 6.381 6.381 0 0 0-4.542-1.885 6.434 6.434 0 0 0-6.428 6.425c0 1.214.34 2.396.983 3.42l.152.242-.649 2.371 2.432-.638Zm7.137-3.726c.135.065.226.109.265.174.048.08.048.467-.113.918-.16.451-.932.863-1.303.919-.333.05-.754.07-1.217-.077-.28-.089-.64-.208-1.101-.407-1.81-.782-3.035-2.537-3.266-2.868a2.554 2.554 0 0 0-.034-.048l-.001-.002c-.103-.137-.787-1.05-.787-1.996 0-.89.437-1.356.638-1.571l.038-.04a.71.71 0 0 1 .515-.242 7.678 7.678 0 0 1 .413.007c.113 0 .253-.002.391.331.054.128.132.318.214.518.166.404.35.851.382.916.048.097.08.21.016.339l-.027.055a1.097 1.097 0 0 1-.166.267 7.43 7.43 0 0 0-.099.119c-.067.08-.133.162-.19.22-.098.095-.198.2-.085.393.112.194.5.826 1.074 1.338.617.551 1.154.784 1.426.902.053.023.096.041.127.057.193.097.306.08.419-.048.112-.13.483-.564.611-.758.13-.193.258-.16.435-.096s1.127.531 1.32.628l.105.052Z" fill="#FDFDFD"/></svg>
